assets/icons/24px/stroke/mouse-rounded-wired-24px.svg

<svg width="24" height="24" viewBox="0 0 24 24" fill="none" xmlns="http://www.w3.org/2000/svg">
<path fill-rule="evenodd" clip-rule="evenodd" d="M9 13L9 17C9 18.6569 10.3431 20 12 20C13.6569 20 15 18.6569 15 17L15 13C15 11.3431 13.6569 10 12 10C10.3431 10 9 11.3431 9 13ZM7 17L7 13C7 10.2386 9.23858 8 12 8C14.7614 8 17 10.2386 17 13L17 17C17 19.7614 14.7614 22 12 22C9.23858 22 7 19.7614 7 17Z" fill="white"/>
<path fill-rule="evenodd" clip-rule="evenodd" d="M13.0317 7.2834C13.0085 7.37321 13 7.54954 13 8.30789L13 11.5C13 12.0523 12.5523 12.5 12 12.5C11.4477 12.5 11 12.0523 11 11.5L11 8.30789C11 8.26407 10.9999 8.22077 10.9999 8.17802C10.9993 7.62262 10.9989 7.15685 11.095 6.78404C11.4798 5.29175 12.9326 4.33374 14.4558 4.56791C14.8364 4.62642 15.2643 4.81032 15.7746 5.02961C15.8139 5.0465 15.8536 5.06359 15.8939 5.08086C16.5909 5.37958 16.7564 5.44122 16.848 5.45531C17.3558 5.53337 17.8401 5.21403 17.9683 4.7166C17.9915 4.62679 18 4.45046 18 3.69212L18 3C18 2.44771 18.4477 2 19 2C19.5523 2 20 2.44772 20 3L20 3.69212C20 3.73593 20 3.77922 20.0001 3.82198C20.0006 4.37737 20.0011 4.84315 19.905 5.21596C19.5202 6.70825 18.0673 7.66626 16.5441 7.43209C16.1636 7.37358 15.7357 7.18968 15.2254 6.97038C15.1861 6.9535 15.1463 6.93641 15.1061 6.91915C14.409 6.62042 14.2436 6.55878 14.1519 6.54469C13.6442 6.46663 13.1599 6.78597 13.0317 7.2834Z" fill="white"/>
</svg>

<svg width="24" height="24" fill="none" xmlns="http://www.w3.org/2000/svg"><path fill-rule="evenodd" clip-rule="evenodd" d="M9 13v4a3 3 0 1 0 6 0v-4a3 3 0 1 0-6 0zm-2 4v-4a5 5 0 0 1 10 0v4a5 5 0 0 1-10 0z" fill="#fff"/><path fill-rule="evenodd" clip-rule="evenodd" d="M13.032 7.283c-.024.09-.032.267-.032 1.025V11.5a1 1 0 1 1-2 0V8.308v-.13c0-.555-.001-1.021.095-1.394a3 3 0 0 1 3.36-2.216c.381.058.81.242 1.32.462l.119.05c.697.3.862.361.954.375a1 1 0 0 0 1.12-.738c.023-.09.032-.267.032-1.025V3a1 1 0 1 1 2 0v.822c0 .555.001 1.021-.095 1.394a3 3 0 0 1-3.36 2.216c-.381-.058-.81-.242-1.32-.462l-.119-.05c-.697-.3-.862-.361-.954-.375a1 1 0 0 0-1.12.738z" fill="#fff"/></svg>
